img/mastercard.svg

<svg width="64" height="64" viewBox="0 0 64 64" fill="none" xmlns="http://www.w3.org/2000/svg">
<path d="M63.5002 32.0001C63.5002 42.4001 55.1002 50.9001 44.6002 50.9001C34.2002 50.9001 25.7002 42.4001 25.7002 32.0001C25.7002 21.6001 34.1002 13.1001 44.5002 13.1001C55.1002 13.1001 63.5002 21.6001 63.5002 32.0001Z" fill="#F8B02B"/>
<path d="M19.1947 13.2998C8.89465 13.3998 0.5 21.5998 0.5 31.9998C0.5 42.3998 8.9 50.8998 19.4 50.8998C24.3 50.8998 28.7 48.9998 32.1 45.9998C32.8 45.3998 33.4 44.6998 34 43.9998H30.1C29.6 43.3998 29.1 42.6998 28.7 42.0998H35.4C35.8 41.4998 36.2 40.7998 36.5 40.0998H27.6C27.3 39.4998 27 38.7998 26.8 38.0998H37.2C37.8 36.1998 38.2 34.1998 38.2 32.0998C38.2 30.6998 38 29.3998 37.8 28.0998H26.2C26.3 27.3998 26.5 26.7998 26.7 26.0998H37.1C36.9 25.3998 36.6 24.6998 36.3 24.0998H27.5C27.8 23.3998 28.2 22.7998 28.6 22.0998H35.3C34.9 21.3998 34.4 20.6998 33.8 20.0998H30.1C30.7 19.3998 31.3 18.7998 32 18.1998C28.7 15.0998 24.2 13.2998 19.3 13.2998C19.3 13.2998 19.2947 13.2998 19.1947 13.2998Z" fill="#E41D2C"/>
<path d="M19.4002 50.8998C24.3002 50.8998 28.7002 48.9998 32.1002 45.9998C32.8002 45.3998 33.4002 44.6998 34.0002 43.9998H30.1002C29.6002 43.3998 29.1002 42.6998 28.7002 42.0998H35.4002C35.8002 41.4998 36.2002 40.7998 36.5002 40.0998H27.6002C27.3002 39.4998 27.0002 38.7998 26.8002 38.0998H37.2002C37.8002 36.1998 38.2002 34.1998 38.2002 32.0998C38.2002 30.6998 38.0002 29.3998 37.8002 28.0998H26.2002C26.3002 27.3998 26.5002 26.7998 26.7002 26.0998H37.1002C36.9002 25.3998 36.6002 24.6998 36.3002 24.0998H27.5002C27.8002 23.3998 28.2002 22.7998 28.6002 22.0998H35.3002C34.9002 21.3998 34.4002 20.6998 33.8002 20.0998H30.1002C30.7002 19.3998 31.3002 18.7998 32.0002 18.1998C28.7002 15.0998 24.2002 13.2998 19.3002 13.2998H19.2002" fill="#E41D2C"/>
<path d="M26.0998 36.8001L26.3998 35.1001C26.2998 35.1001 26.0998 35.2001 25.8998 35.2001C25.1998 35.2001 25.0998 34.8001 25.1998 34.6001L25.7998 31.1001H26.8998L27.1998 29.2001H26.1998L26.3998 28.0001H24.3998C24.3998 28.0001 23.1998 34.6001 23.1998 35.4001C23.1998 36.6001 23.8998 37.1001 24.7998 37.1001C25.3998 37.1001 25.8998 36.9001 26.0998 36.8001V36.8001ZM26.7998 33.6001C26.7998 36.4001 28.6998 37.1001 30.2998 37.1001C31.7998 37.1001 32.3998 36.8001 32.3998 36.8001L32.7998 34.9001C32.7998 34.9001 31.6998 35.4001 30.6998 35.4001C28.4998 35.4001 28.8998 33.8001 28.8998 33.8001H32.9998C32.9998 33.8001 33.2998 32.5001 33.2998 32.0001C33.2998 30.7001 32.5998 29.1001 30.3998 29.1001C28.2998 28.9001 26.7998 31.1001 26.7998 33.6001V33.6001ZM30.2998 30.7001C31.3998 30.7001 31.1998 32.0001 31.1998 32.1001H28.9998C28.9998 32.0001 29.1998 30.7001 30.2998 30.7001ZM42.9998 36.8001L43.3998 34.6001C43.3998 34.6001 42.3998 35.1001 41.6998 35.1001C40.2998 35.1001 39.6998 34.0001 39.6998 32.8001C39.6998 30.4001 40.8998 29.1001 42.2998 29.1001C43.2998 29.1001 44.0998 29.7001 44.0998 29.7001L44.3998 27.6001C44.3998 27.6001 43.1998 27.1001 42.0998 27.1001C39.7998 27.1001 37.4998 29.1001 37.4998 32.9001C37.4998 35.4001 38.6998 37.1001 41.0998 37.1001C41.8998 37.1001 42.9998 36.8001 42.9998 36.8001V36.8001ZM15.0998 28.9001C13.6998 28.9001 12.6998 29.3001 12.6998 29.3001L12.3998 31.0001C12.3998 31.0001 13.2998 30.6001 14.5998 30.6001C15.2998 30.6001 15.8998 30.7001 15.8998 31.3001C15.8998 31.7001 15.7998 31.8001 15.7998 31.8001H14.8998C13.1998 31.8001 11.2998 32.5001 11.2998 34.8001C11.2998 36.6001 12.4998 37.0001 13.1998 37.0001C14.5998 37.0001 15.1998 36.1001 15.2998 36.1001L15.1998 36.9001H16.9998L17.7998 31.4001C17.7998 29.0001 15.7998 28.9001 15.0998 28.9001V28.9001ZM15.4998 33.4001C15.4998 33.7001 15.2998 35.3001 14.0998 35.3001C13.4998 35.3001 13.2998 34.8001 13.2998 34.5001C13.2998 34.0001 13.5998 33.3001 15.0998 33.3001C15.3998 33.4001 15.4998 33.4001 15.4998 33.4001ZM19.6998 37.0001C20.1998 37.0001 22.6998 37.1001 22.6998 34.4001C22.6998 31.9001 20.2998 32.4001 20.2998 31.4001C20.2998 30.9001 20.6998 30.7001 21.3998 30.7001C21.6998 30.7001 22.7998 30.8001 22.7998 30.8001L23.0998 29.0001C23.0998 29.0001 22.3998 28.8001 21.1998 28.8001C19.6998 28.8001 18.1998 29.4001 18.1998 31.4001C18.1998 33.7001 20.6998 33.5001 20.6998 34.4001C20.6998 35.0001 19.9998 35.1001 19.4998 35.1001C18.5998 35.1001 17.6998 34.8001 17.6998 34.8001L17.3998 36.6001C17.4998 36.8001 17.9998 37.0001 19.6998 37.0001V37.0001ZM59.5998 27.3001L59.1998 30.0001C59.1998 30.0001 58.3998 29.0001 57.2998 29.0001C55.4998 29.0001 53.8998 31.2001 53.8998 33.8001C53.8998 35.4001 54.6998 37.1001 56.3998 37.1001C57.5998 37.1001 58.2998 36.3001 58.2998 36.3001L58.1998 37.0001H60.1998L61.6998 27.4001L59.5998 27.3001V27.3001ZM58.6998 32.6001C58.6998 33.7001 58.1998 35.1001 57.0998 35.1001C56.3998 35.1001 55.9998 34.5001 55.9998 33.5001C55.9998 31.9001 56.6998 30.9001 57.5998 30.9001C58.2998 30.9001 58.6998 31.4001 58.6998 32.6001ZM4.1998 36.9001L5.3998 29.7001L5.5998 36.9001H6.9998L9.5998 29.7001L8.4998 36.9001H10.5998L12.1998 27.3001H8.8998L6.89981 33.2001L6.7998 27.3001H3.8998L2.2998 36.9001H4.1998V36.9001ZM35.1998 36.9001C35.7998 33.6001 35.8998 30.9001 37.2998 31.4001C37.4998 30.1001 37.7998 29.6001 37.9998 29.1001H37.5998C36.6998 29.1001 35.9998 30.3001 35.9998 30.3001L36.1998 29.2001H34.2998L32.9998 37.0001H35.1998V36.9001ZM47.5998 28.9001C46.1998 28.9001 45.1998 29.3001 45.1998 29.3001L44.8998 31.0001C44.8998 31.0001 45.7998 30.6001 47.0998 30.6001C47.7998 30.6001 48.3998 30.7001 48.3998 31.3001C48.3998 31.7001 48.2998 31.8001 48.2998 31.8001H47.3998C45.6998 31.8001 43.7998 32.5001 43.7998 34.8001C43.7998 36.6001 44.9998 37.0001 45.6998 37.0001C47.0998 37.0001 47.6998 36.1001 47.7998 36.1001L47.6998 36.9001H49.4998L50.2998 31.4001C50.3998 29.0001 48.2998 28.9001 47.5998 28.9001V28.9001ZM48.0998 33.4001C48.0998 33.7001 47.8998 35.3001 46.6998 35.3001C46.0998 35.3001 45.8998 34.8001 45.8998 34.5001C45.8998 34.0001 46.1998 33.3001 47.6998 33.3001C47.9998 33.4001 47.9998 33.4001 48.0998 33.4001ZM51.9998 36.9001C52.5998 33.6001 52.6998 30.9001 54.0998 31.4001C54.2998 30.1001 54.5998 29.6001 54.7998 29.1001H54.3998C53.4998 29.1001 52.7998 30.3001 52.7998 30.3001L52.9998 29.2001H51.0998L49.7998 37.0001H51.9998V36.9001Z" fill="white"/>
<path d="M22.9998 35.4001C22.9998 36.6001 23.6998 37.1001 24.5998 37.1001C25.2998 37.1001 25.8998 36.9001 26.0998 36.8001L26.3998 35.1001C26.2998 35.1001 26.0998 35.2001 25.8998 35.2001C25.1998 35.2001 25.0998 34.8001 25.1998 34.6001L25.7998 31.1001H26.8998L27.1998 29.2001H26.1998L26.3998 28.0001L22.9998 35.4001ZM27.7998 33.6001C27.7998 36.4001 28.6998 37.1001 30.2998 37.1001C31.7998 37.1001 32.3998 36.8001 32.3998 36.8001L32.7998 34.9001C32.7998 34.9001 31.6998 35.4001 30.6998 35.4001C28.4998 35.4001 28.8998 33.8001 28.8998 33.8001H32.9998C32.9998 33.8001 33.2998 32.5001 33.2998 32.0001C33.2998 30.7001 32.5998 29.1001 30.3998 29.1001C28.2998 28.9001 27.7998 31.1001 27.7998 33.6001V33.6001ZM30.2998 30.7001C31.3998 30.7001 31.5998 32.0001 31.5998 32.1001H28.9998C28.9998 32.0001 29.1998 30.7001 30.2998 30.7001ZM42.9998 36.8001L43.3998 34.6001C43.3998 34.6001 42.3998 35.1001 41.6998 35.1001C40.2998 35.1001 39.6998 34.0001 39.6998 32.8001C39.6998 30.4001 40.8998 29.1001 42.2998 29.1001C43.2998 29.1001 44.0998 29.7001 44.0998 29.7001L44.3998 27.6001C44.3998 27.6001 43.1998 27.1001 42.0998 27.1001C39.7998 27.1001 38.4998 29.1001 38.4998 32.9001C38.4998 35.4001 38.6998 37.1001 41.0998 37.1001C41.8998 37.1001 42.9998 36.8001 42.9998 36.8001V36.8001ZM12.3998 31.1001C12.3998 31.1001 13.2998 30.7001 14.5998 30.7001C15.2998 30.7001 15.8998 30.8001 15.8998 31.4001C15.8998 31.8001 15.7998 31.9001 15.7998 31.9001H14.8998C13.1998 31.9001 11.2998 32.6001 11.2998 34.9001C11.2998 36.7001 12.4998 37.1001 13.1998 37.1001C14.5998 37.1001 15.1998 36.2001 15.2998 36.2001L15.1998 37.0001H16.9998L17.7998 31.5001C17.7998 29.2001 15.7998 29.1001 14.9998 29.1001L12.3998 31.1001ZM16.4998 33.4001C16.4998 33.7001 15.2998 35.3001 14.0998 35.3001C13.4998 35.3001 13.2998 34.8001 13.2998 34.5001C13.2998 34.0001 13.5998 33.3001 15.0998 33.3001C15.3998 33.4001 16.4998 33.4001 16.4998 33.4001ZM17.4998 36.8001C17.4998 36.8001 18.0998 37.0001 19.7998 37.0001C20.2998 37.0001 22.7998 37.1001 22.7998 34.4001C22.7998 31.9001 20.3998 32.4001 20.3998 31.4001C20.3998 30.9001 20.7998 30.7001 21.4998 30.7001C21.7998 30.7001 22.8998 30.8001 22.8998 30.8001L23.1998 29.0001C23.1998 29.0001 22.4998 28.8001 21.2998 28.8001C19.7998 28.8001 19.2998 29.4001 19.2998 31.4001C19.2998 33.7001 20.7998 33.5001 20.7998 34.4001C20.7998 35.0001 20.0998 35.1001 19.5998 35.1001L17.4998 36.8001ZM59.1998 30.0001C59.1998 30.0001 58.3998 29.0001 57.2998 29.0001C55.4998 29.0001 54.8998 31.2001 54.8998 33.8001C54.8998 35.4001 54.6998 37.1001 56.3998 37.1001C57.5998 37.1001 58.2998 36.3001 58.2998 36.3001L58.1998 37.0001H60.1998L61.6998 27.4001L59.1998 30.0001ZM59.0998 32.6001C59.0998 33.7001 58.1998 35.1001 57.0998 35.1001C56.3998 35.1001 55.9998 34.5001 55.9998 33.5001C55.9998 31.9001 56.6998 30.9001 57.5998 30.9001C58.2998 30.9001 59.0998 31.4001 59.0998 32.6001ZM4.1998 36.9001L5.3998 29.7001L5.5998 36.9001H6.9998L9.5998 29.7001L8.4998 36.9001H10.5998L12.1998 27.3001H9.6998L6.89981 33.2001L6.7998 27.3001H5.6998L2.2998 36.9001H4.1998ZM33.0998 36.9001H35.1998C35.7998 33.6001 35.8998 30.9001 37.2998 31.4001C37.4998 30.1001 37.7998 29.6001 37.9998 29.1001H37.5998C36.6998 29.1001 35.9998 30.3001 35.9998 30.3001L36.1998 29.2001L33.0998 36.9001ZM44.8998 31.1001C44.8998 31.1001 45.7998 30.7001 47.0998 30.7001C47.7998 30.7001 48.3998 30.8001 48.3998 31.4001C48.3998 31.8001 48.2998 31.9001 48.2998 31.9001H47.3998C45.6998 31.9001 43.7998 32.6001 43.7998 34.9001C43.7998 36.7001 44.9998 37.1001 45.6998 37.1001C47.0998 37.1001 47.6998 36.2001 47.7998 36.2001L47.6998 37.0001H49.4998L50.2998 31.5001C50.2998 29.2001 48.2998 29.1001 47.4998 29.1001L44.8998 31.1001ZM48.9998 33.4001C48.9998 33.7001 47.7998 35.3001 46.5998 35.3001C45.9998 35.3001 45.7998 34.8001 45.7998 34.5001C45.7998 34.0001 46.0998 33.3001 47.5998 33.3001C47.9998 33.4001 48.9998 33.4001 48.9998 33.4001ZM49.8998 36.9001H51.9998C52.5998 33.6001 52.6998 30.9001 54.0998 31.4001C54.2998 30.1001 54.5998 29.6001 54.7998 29.1001H54.3998C53.4998 29.1001 52.7998 30.3001 52.7998 30.3001L52.9998 29.2001" fill="#DCE5E5"/>
</svg>

<svg width="64" height="64" fill="none" xmlns="http://www.w3.org/2000/svg"><path d="M63.5 32c0 10.4-8.4 18.9-18.9 18.9-10.4 0-18.9-8.5-18.9-18.9 0-10.4 8.4-18.9 18.8-18.9 10.6 0 19 8.5 19 18.9z" fill="#F8B02B"/><path d="M19.195 13.3C8.895 13.4.5 21.6.5 32c0 10.4 8.4 18.9 18.9 18.9 4.9 0 9.3-1.9 12.7-4.9.7-.6 1.3-1.3 1.9-2h-3.9c-.5-.6-1-1.3-1.4-1.9h6.7c.4-.6.8-1.3 1.1-2h-8.9c-.3-.6-.6-1.3-.8-2h10.4c.6-1.9 1-3.9 1-6 0-1.4-.2-2.7-.4-4H26.2c.1-.7.3-1.3.5-2h10.4c-.2-.7-.5-1.4-.8-2h-8.8c.3-.7.7-1.3 1.1-2h6.7c-.4-.7-.9-1.4-1.5-2h-3.7c.6-.7 1.2-1.3 1.9-1.9-3.3-3.1-7.8-4.9-12.7-4.9h-.105z" fill="#E41D2C"/><path d="M19.4 50.9c4.9 0 9.3-1.9 12.7-4.9.7-.6 1.3-1.3 1.9-2h-3.9c-.5-.6-1-1.3-1.4-1.9h6.7c.4-.6.8-1.3 1.1-2h-8.9c-.3-.6-.6-1.3-.8-2h10.4c.6-1.9 1-3.9 1-6 0-1.4-.2-2.7-.4-4H26.2c.1-.7.3-1.3.5-2h10.4c-.2-.7-.5-1.4-.8-2h-8.8c.3-.7.7-1.3 1.1-2h6.7c-.4-.7-.9-1.4-1.5-2h-3.7c.6-.7 1.2-1.3 1.9-1.9-3.3-3.1-7.8-4.9-12.7-4.9h-.1" fill="#E41D2C"/><path d="M26.1 36.8l.3-1.7c-.1 0-.3.1-.5.1-.7 0-.8-.4-.7-.6l.6-3.5h1.1l.3-1.9h-1l.2-1.2h-2s-1.2 6.6-1.2 7.4c0 1.2.7 1.7 1.6 1.7.6 0 1.1-.2 1.3-.3zm.7-3.2c0 2.8 1.9 3.5 3.5 3.5 1.5 0 2.1-.3 2.1-.3l.4-1.9s-1.1.5-2.1.5c-2.2 0-1.8-1.6-1.8-1.6H33s.3-1.3.3-1.8c0-1.3-.7-2.9-2.9-2.9-2.1-.2-3.6 2-3.6 4.5zm3.5-2.9c1.1 0 .9 1.3.9 1.4H29c0-.1.2-1.4 1.3-1.4zM43 36.8l.4-2.2s-1 .5-1.7.5c-1.4 0-2-1.1-2-2.3 0-2.4 1.2-3.7 2.6-3.7 1 0 1.8.6 1.8.6l.3-2.1s-1.2-.5-2.3-.5c-2.3 0-4.6 2-4.6 5.8 0 2.5 1.2 4.2 3.6 4.2.8 0 1.9-.3 1.9-.3zm-27.9-7.9c-1.4 0-2.4.4-2.4.4l-.3 1.7s.9-.4 2.2-.4c.7 0 1.3.1 1.3.7 0 .4-.1.5-.1.5h-.9c-1.7 0-3.6.7-3.6 3 0 1.8 1.2 2.2 1.9 2.2 1.4 0 2-.9 2.1-.9l-.1.8H17l.8-5.5c0-2.4-2-2.5-2.7-2.5zm.4 4.5c0 .3-.2 1.9-1.4 1.9-.6 0-.8-.5-.8-.8 0-.5.3-1.2 1.8-1.2.3.1.4.1.4.1zm4.2 3.6c.5 0 3 .1 3-2.6 0-2.5-2.4-2-2.4-3 0-.5.4-.7 1.1-.7.3 0 1.4.1 1.4.1l.3-1.8s-.7-.2-1.9-.2c-1.5 0-3 .6-3 2.6 0 2.3 2.5 2.1 2.5 3 0 .6-.7.7-1.2.7-.9 0-1.8-.3-1.8-.3l-.3 1.8c.1.2.6.4 2.3.4zm39.9-9.7l-.4 2.7s-.8-1-1.9-1c-1.8 0-3.4 2.2-3.4 4.8 0 1.6.8 3.3 2.5 3.3 1.2 0 1.9-.8 1.9-.8l-.1.7h2l1.5-9.6-2.1-.1zm-.9 5.3c0 1.1-.5 2.5-1.6 2.5-.7 0-1.1-.6-1.1-1.6 0-1.6.7-2.6 1.6-2.6.7 0 1.1.5 1.1 1.7zM4.2 36.9l1.2-7.2.2 7.2H7l2.6-7.2-1.1 7.2h2.1l1.6-9.6H8.9l-2 5.9-.1-5.9H3.9l-1.6 9.6h1.9zm31 0c.6-3.3.7-6 2.1-5.5.2-1.3.5-1.8.7-2.3h-.4c-.9 0-1.6 1.2-1.6 1.2l.2-1.1h-1.9L33 37h2.2v-.1zm12.4-8c-1.4 0-2.4.4-2.4.4l-.3 1.7s.9-.4 2.2-.4c.7 0 1.3.1 1.3.7 0 .4-.1.5-.1.5h-.9c-1.7 0-3.6.7-3.6 3 0 1.8 1.2 2.2 1.9 2.2 1.4 0 2-.9 2.1-.9l-.1.8h1.8l.8-5.5c.1-2.4-2-2.5-2.7-2.5zm.5 4.5c0 .3-.2 1.9-1.4 1.9-.6 0-.8-.5-.8-.8 0-.5.3-1.2 1.8-1.2.3.1.3.1.4.1zm3.9 3.5c.6-3.3.7-6 2.1-5.5.2-1.3.5-1.8.7-2.3h-.4c-.9 0-1.6 1.2-1.6 1.2l.2-1.1h-1.9L49.8 37H52v-.1z" fill="#fff"/><path d="M23 35.4c0 1.2.7 1.7 1.6 1.7.7 0 1.3-.2 1.5-.3l.3-1.7c-.1 0-.3.1-.5.1-.7 0-.8-.4-.7-.6l.6-3.5h1.1l.3-1.9h-1l.2-1.2-3.4 7.4zm4.8-1.8c0 2.8.9 3.5 2.5 3.5 1.5 0 2.1-.3 2.1-.3l.4-1.9s-1.1.5-2.1.5c-2.2 0-1.8-1.6-1.8-1.6H33s.3-1.3.3-1.8c0-1.3-.7-2.9-2.9-2.9-2.1-.2-2.6 2-2.6 4.5zm2.5-2.9c1.1 0 1.3 1.3 1.3 1.4H29c0-.1.2-1.4 1.3-1.4zM43 36.8l.4-2.2s-1 .5-1.7.5c-1.4 0-2-1.1-2-2.3 0-2.4 1.2-3.7 2.6-3.7 1 0 1.8.6 1.8.6l.3-2.1s-1.2-.5-2.3-.5c-2.3 0-3.6 2-3.6 5.8 0 2.5.2 4.2 2.6 4.2.8 0 1.9-.3 1.9-.3zm-30.6-5.7s.9-.4 2.2-.4c.7 0 1.3.1 1.3.7 0 .4-.1.5-.1.5h-.9c-1.7 0-3.6.7-3.6 3 0 1.8 1.2 2.2 1.9 2.2 1.4 0 2-.9 2.1-.9l-.1.8H17l.8-5.5c0-2.3-2-2.4-2.8-2.4l-2.6 2zm4.1 2.3c0 .3-1.2 1.9-2.4 1.9-.6 0-.8-.5-.8-.8 0-.5.3-1.2 1.8-1.2.3.1 1.4.1 1.4.1zm1 3.4s.6.2 2.3.2c.5 0 3 .1 3-2.6 0-2.5-2.4-2-2.4-3 0-.5.4-.7 1.1-.7.3 0 1.4.1 1.4.1l.3-1.8s-.7-.2-1.9-.2c-1.5 0-2 .6-2 2.6 0 2.3 1.5 2.1 1.5 3 0 .6-.7.7-1.2.7l-2.1 1.7zM59.2 30s-.8-1-1.9-1c-1.8 0-2.4 2.2-2.4 4.8 0 1.6-.2 3.3 1.5 3.3 1.2 0 1.9-.8 1.9-.8l-.1.7h2l1.5-9.6-2.5 2.6zm-.1 2.6c0 1.1-.9 2.5-2 2.5-.7 0-1.1-.6-1.1-1.6 0-1.6.7-2.6 1.6-2.6.7 0 1.5.5 1.5 1.7zM4.2 36.9l1.2-7.2.2 7.2H7l2.6-7.2-1.1 7.2h2.1l1.6-9.6H9.7l-2.8 5.9-.1-5.9H5.7l-3.4 9.6h1.9zm28.9 0h2.1c.6-3.3.7-6 2.1-5.5.2-1.3.5-1.8.7-2.3h-.4c-.9 0-1.6 1.2-1.6 1.2l.2-1.1-3.1 7.7zm11.8-5.8s.9-.4 2.2-.4c.7 0 1.3.1 1.3.7 0 .4-.1.5-.1.5h-.9c-1.7 0-3.6.7-3.6 3 0 1.8 1.2 2.2 1.9 2.2 1.4 0 2-.9 2.1-.9l-.1.8h1.8l.8-5.5c0-2.3-2-2.4-2.8-2.4l-2.6 2zm4.1 2.3c0 .3-1.2 1.9-2.4 1.9-.6 0-.8-.5-.8-.8 0-.5.3-1.2 1.8-1.2.4.1 1.4.1 1.4.1zm.9 3.5H52c.6-3.3.7-6 2.1-5.5.2-1.3.5-1.8.7-2.3h-.4c-.9 0-1.6 1.2-1.6 1.2l.2-1.1" fill="#DCE5E5"/></svg>
